X:1
T: Handy with the Stick
C:
R:Jig
Q:180
K:Em
M:6/8
L:1/16
GA|B2e2d2 c2B2A2|G2E2G2 B2G2E2|D2E2G2 G2A2B2|e2d2B2 c2B2A2|B2e2d2 c2B2A2|G2E2G2 B2G2E2|D2E2G2 G2A2B2|B2e2^d2 e4GA|
B2e2d2 c2B2A2|G2E2G2 B2G2E2|D2E2G2 G2A2B2|e2d2B2 c2B2A2|B2e2d2 c2B2A2|G2E2G2 B2G2E2|D2E2G2 G2A2B2|B2e2^d2e4ef|
g2d2B2 G2B2d2|g2a2f2 g2d2B2|c2A2A2 E2A2A2|c2e2d2 c2B2A2|G2B2B2 A2c2c2|G2B2A2 G2F2E2|D2E2G2 G2A2B2|B2e2^d2e4ef|
g2d2B2 G2B2d2|g2a2f2 g2d2B2|c2A2A2 E2A2A2|c2e2d2 c2B2A2|G2B2B2 A2c2c2|G2B2A2 G2F2E2|D2E2G2 G2A2B2|B2e2^d2e4||
